X:1
T:Scotch Polka
T:(Tinner's Rabbits)
C:traditional
M:4/4
L:1/8
K:G major
V:1 clef=treble
P:A
Bc |: d2 G2 G2 AB | c2 E2 E2 G2 |1 FGAB c2 A2 | e2 d2 d2 Bc :|2 \
FGAB c2 F2 | A2 G2 G2 Bc ||
P:B
d2 g2 g2 fg | f2 e2 e2 AB | c2 c2 c2 A2 | e2 d2 d2 Bc | 
d2 g2 g2 fg | f2 e2 e2 G2 | FGAB c2 F2 | A2 G2 G2 |]